Origami/48x48/apps/the-witcher-2.svg

<svg width="48" height="48" version="1.1" viewBox="0 0 48 48" xmlns="http://www.w3.org/2000/svg">
 <circle cx="24" cy="25" r="20" style="opacity:.2"/>
 <circle cx="24" cy="24" r="20" style="fill:#c44652"/>
 <path d="m14 8.9998988v4.0000002l-1.693359 1.912109c-2.5079203 1.490072-4.3981012 2.497923-6.306641 4.087891l4 2-7 4 8 1-7 8 8-2v2l4-1-1 3 7-3h4l7 3-1-3 4 1v-2l8 2-7-8 8-1-7-4 4-2c-1.90854-1.589968-3.798721-2.597819-6.306641-4.087891l-1.693359-1.912109v-4.0000002l-4 2.0000002v-1.0000002l-2 1.0000002v-1.0000002l-4 1.0000002-4-1.0000002v1.0000002l-2-1.0000002v1.0000002z" style="opacity:.2"/>
 <path d="M 24 4 A 20 20 0 0 0 4 24 A 20 20 0 0 0 4.0215 24.582 A 20 20 0 0 1 24 5 A 20 20 0 0 1 43.979 24.418 A 20 20 0 0 0 44 24 A 20 20 0 0 0 24 4 z" style="fill:#ffffff;opacity:.2"/>
 <path d="m14 8v4l-1.693359 1.912109c-2.5079203 1.490072-4.3981012 2.497923-6.306641 4.087891l4 2-7 4 8 1-7 8 8-2v2l4-1-1 3 7-3h2 2l7 3-1-3 4 1v-2l8 2-7-8 8-1-7-4 4-2c-1.90854-1.589968-3.798721-2.597819-6.306641-4.087891l-1.693359-1.912109v-4l-4 2v-1l-2 1v-1l-4 1-4-1v1l-2-1v1l-4-2z" style="fill:#393939"/>
 <path d="m10 7.9998988-0.9941406 1.5625c-0.069369 2.3731612 0.5957663 4.4813142 1.3945316 6.5429692 1.388869 3.435501 5.14174 4.711399 7.40625 6.824219 1.436709 1.372896 1.823727 2.583472 2.029297 3.792968 0.238126 1.401044 0.381804 2.919948 0.53125 5.257813 0.499739 3.04234 0.772056 7.999496 1.146484 9.652343 0.343016 0.383553 2.486328 0.367188 2.486328 0.367188s2.143312 0.01637 2.486328-0.367188c0.374428-1.652847 0.646745-6.610003 1.146484-9.652343 0.149447-2.337865 0.293124-3.856769 0.53125-5.257813 0.205569-1.209496 0.592588-2.420072 2.029297-3.792968 2.26451-2.11282 6.017381-3.388718 7.40625-6.824219 0.798765-2.061655 1.463902-4.169808 1.394532-6.5429692l-0.994141-1.5625v1.5585938l-6.494141 4.5488284-7.505859-0.107422-7.505859 0.107422-6.494141-4.5488284z" style="opacity:.2"/>
 <path d="m10 7l-0.9941406 1.5625c-0.069369 2.373161 0.5957663 4.481314 1.3945316 6.542969 1.388869 3.435501 5.14174 4.711399 7.40625 6.824219 1.436709 1.372896 1.823727 2.583472 2.029297 3.792968 0.238126 1.401044 0.381804 2.919948 0.53125 5.257813 0.499739 3.04234 0.772056 7.999496 1.146484 9.652343 0.343016 0.383553 2.486328 0.367188 2.486328 0.367188s2.143312 0.016365 2.486328-0.367188c0.374428-1.652847 0.646745-6.610003 1.146484-9.652343 0.149447-2.337865 0.293124-3.856769 0.53125-5.257813 0.205569-1.209496 0.592588-2.420072 2.029297-3.792968 2.26451-2.11282 6.017381-3.388718 7.40625-6.824219 0.798765-2.061655 1.463902-4.169808 1.394532-6.542969l-0.994141-1.5625v1.5585938l-6.494141 4.5488282-7.505859-0.107422-7.505859 0.107422-6.494141-4.5488282v-1.5585938z" style="fill:#505050"/>
 <path d="M 16.267912,16.355355 A 3.3358673,3.3358673 0 0 0 16,17.664032 3.3358673,3.3358673 0 0 0 19.335867,20.999899 3.3358673,3.3358673 0 0 0 22,19.664769 Z" style="opacity:.2"/>
 <path d="M 16.267912,15.355456 A 3.3358673,3.3358673 0 0 0 16,16.664133 3.3358673,3.3358673 0 0 0 19.335867,20 3.3358673,3.3358673 0 0 0 22,18.66487 Z" style="fill:#eb6b00"/>
 <path d="M 31.732088,16.355355 A 3.3358673,3.3358673 0 0 1 32,17.664032 3.3358673,3.3358673 0 0 1 28.664133,20.999899 3.3358673,3.3358673 0 0 1 26,19.664769 Z" style="opacity:.2"/>
 <path d="M 31.732088,15.355456 A 3.3358673,3.3358673 0 0 1 32,16.664133 3.3358673,3.3358673 0 0 1 28.664133,20 3.3358673,3.3358673 0 0 1 26,18.66487 Z" style="fill:#eb6b00"/>
 <path d="m27 26.978516c-1.041456 0.41842-1.930161 1.083443-3 1v0.021484c-1.069839 0.083443-1.958544-0.58158-3-1l1.025391 10.908203c0.078129 0.816057 0.095686 0.9251 0.777343 1 0.445444 0.07484 0.787427 0.103247 1.197266 0.091797v-0.021484c0.409839 0.01145 0.751822-0.016957 1.197266-0.091797 0.681657-0.0749 0.699214-0.18199 0.777343-0.998047l1.025391-10.910156z" style="opacity:.4"/>
 <path d="m23 35.978415c-0.434092 0.357713-0.813335 0.828707-1.123047 1.351562l0.148438 1.578125c0.07813 0.816057 0.09569 0.9251 0.777343 1 0.144455 0.02427 0.267949 0.03605 0.396485 0.05078h1.43164c0.178977-0.01539 0.360056-0.0376 0.566407-0.07227 0.681657-0.0749 0.699214-0.18199 0.777343-0.998047l0.146485-1.560547c-0.309468-0.521937-0.687631-0.992408-1.121094-1.349603v2h-2z" style="opacity:.2"/>
 <path d="m23 34.978516c-0.434092 0.357713-0.813335 0.828707-1.123047 1.351562l0.148438 1.578125c0.078129 0.816057 0.095686 0.9251 0.777343 1 0.144455 0.02427 0.267949 0.036053 0.396485 0.050781h0.800781 0.630859c0.178977-0.015394 0.360056-0.037596 0.566407-0.072265 0.681657-0.0749 0.699214-0.18199 0.777343-0.998047l0.146485-1.560547c-0.309468-0.521943-0.687631-0.992414-1.121094-1.349609v2h-1-1v-2z" style="fill:#ffffff"/>
 <path d="m27 27.978415c-1.041456 0.41842-1.930161 1.083443-3 1v0.02148c-1.068416 0.08333-1.956428-0.57953-2.996094-0.998047 0.116011 1.405329 0.875666 3.074758 1.996094 3.998047v-2h2v2c1.126557-0.92834 1.890466-2.611397 2-4.021484z" style="opacity:.2"/>
 <path d="m27 26.978516c-1.041456 0.41842-1.930161 1.083443-3 1v0.021484c-1.068416 0.083332-1.956428-0.57953-2.996094-0.998047 0.116011 1.405329 0.875666 3.074758 1.996094 3.998047v-2h1 1v2c1.126557-0.92834 1.890466-2.611397 2-4.021484z" style="fill:#ffffff"/>
 <path d="m10 7l-0.9941406 1.5625c-0.0096413 0.329836-0.0014975 0.6544251 0.015625 0.9746094l0.9785156-1.5371094v-1zm28 0v1l0.978516 1.5371094c0.017122-0.3201843 0.025266-0.6447734 0.015625-0.9746094l-0.994141-1.5625zm-28 1.5585938v1l6.494141 4.5488282 7.505859-0.107422 7.505859 0.107422 6.494141-4.5488282v-1l-6.494141 4.5488282-7.505859-0.107422-7.505859 0.107422-6.494141-4.5488282z" style="fill:#ffffff;opacity:.1"/>
 <path d="m16.267578 15.355469a3.3358673 3.3358673 0 0 0 -0.267578 1.308593 3.3358673 3.3358673 0 0 0 0.041016 0.498047 3.3358673 3.3358673 0 0 1 0.226562 -0.80664l5.101563 2.945312a3.3358673 3.3358673 0 0 0 0.630859 -0.636719l-5.732422-3.308593z" style="fill:#ffffff;opacity:.1"/>
 <path d="m31.732422 15.355469l-5.732422 3.308593a3.3358673 3.3358673 0 0 0 0.630859 0.636719l5.101563-2.945312a3.3358673 3.3358673 0 0 1 0.226562 0.80664 3.3358673 3.3358673 0 0 0 0.041016 -0.498047 3.3358673 3.3358673 0 0 0 -0.267578 -1.308593z" style="fill:#ffffff;opacity:.1"/>
</svg>

<svg xmlns="http://www.w3.org/2000/svg" width="48" height="48" version="1.1" viewBox="0 0 48 48">
 <circle style="opacity:0.2" cx="24" cy="25" r="20"/>
 <circle style="fill:#c44652" cx="24" cy="24" r="20"/>
 <path d="m 14,8.9998988 v 4.0000002 l -1.693359,1.912109 C 9.7987207,16.40208 7.9085398,17.409931 6,18.999899 l 4,2 -7,4 8,1 -7,8 8,-2 v 2 l 4,-1 -1,3 7,-3 h 2 2 l 7,3 -1,-3 4,1 v -2 l 8,2 -7,-8 8,-1 -7,-4 4,-2 C 40.09146,17.409931 38.201279,16.40208 35.693359,14.912008 L 34,12.999899 V 8.9998988 L 30,10.999899 V 9.9998988 L 28,10.999899 V 9.9998988 L 24,10.999899 20,9.9998988 V 10.999899 L 18,9.9998988 v 1.0000002 z" style="opacity:0.2"/>
 <path style="opacity:0.2;fill:#ffffff" d="M 24 4 A 20 20 0 0 0 4 24 A 20 20 0 0 0 4.0215 24.582 A 20 20 0 0 1 24 5 A 20 20 0 0 1 43.979 24.418 A 20 20 0 0 0 44 24 A 20 20 0 0 0 24 4 z"/>
 <path style="fill:#393939" d="M 14 8 L 14 12 L 12.306641 13.912109 C 9.7987207 15.402181 7.9085398 16.410032 6 18 L 10 20 L 3 24 L 11 25 L 4 33 L 12 31 L 12 33 L 16 32 L 15 35 L 22 32 L 24 32 L 26 32 L 33 35 L 32 32 L 36 33 L 36 31 L 44 33 L 37 25 L 45 24 L 38 20 L 42 18 C 40.09146 16.410032 38.201279 15.402181 35.693359 13.912109 L 34 12 L 34 8 L 30 10 L 30 9 L 28 10 L 28 9 L 24 10 L 20 9 L 20 10 L 18 9 L 18 10 L 14 8 z"/>
 <path d="m 10,7.9998988 -0.9941406,1.5625 c -0.069369,2.3731612 0.5957663,4.4813142 1.3945316,6.5429692 1.388869,3.435501 5.14174,4.711399 7.40625,6.824219 1.436709,1.372896 1.823727,2.583472 2.029297,3.792968 0.238126,1.401044 0.381804,2.919948 0.53125,5.257813 0.499739,3.04234 0.772056,7.999496 1.146484,9.652343 C 21.856688,42.016264 24,41.999899 24,41.999899 c 0,0 2.143312,0.01637 2.486328,-0.367188 0.374428,-1.652847 0.646745,-6.610003 1.146484,-9.652343 0.149447,-2.337865 0.293124,-3.856769 0.53125,-5.257813 0.205569,-1.209496 0.592588,-2.420072 2.029297,-3.792968 2.26451,-2.11282 6.017381,-3.388718 7.40625,-6.824219 0.798765,-2.061655 1.463902,-4.169808 1.394532,-6.5429692 L 38,7.9998988 V 9.5584926 L 31.505859,14.107321 24,13.999899 16.494141,14.107321 10,9.5584926 Z" style="opacity:0.2"/>
 <path style="fill:#505050" d="M 10 7 L 9.0058594 8.5625 C 8.9364904 10.935661 9.6016257 13.043814 10.400391 15.105469 C 11.78926 18.54097 15.542131 19.816868 17.806641 21.929688 C 19.24335 23.302584 19.630368 24.51316 19.835938 25.722656 C 20.074064 27.1237 20.217742 28.642604 20.367188 30.980469 C 20.866927 34.022809 21.139244 38.979965 21.513672 40.632812 C 21.856688 41.016365 24 41 24 41 C 24 41 26.143312 41.016365 26.486328 40.632812 C 26.860756 38.979965 27.133073 34.022809 27.632812 30.980469 C 27.782259 28.642604 27.925936 27.1237 28.164062 25.722656 C 28.369631 24.51316 28.75665 23.302584 30.193359 21.929688 C 32.457869 19.816868 36.21074 18.54097 37.599609 15.105469 C 38.398374 13.043814 39.063511 10.935661 38.994141 8.5625 L 38 7 L 38 8.5585938 L 31.505859 13.107422 L 24 13 L 16.494141 13.107422 L 10 8.5585938 L 10 7 z"/>
 <path d="M 16.267912,16.355355 A 3.3358673,3.3358673 0 0 0 16,17.664032 3.3358673,3.3358673 0 0 0 19.335867,20.999899 3.3358673,3.3358673 0 0 0 22,19.664769 Z" style="opacity:0.2"/>
 <path style="fill:#eb6b00" d="M 16.267912,15.355456 A 3.3358673,3.3358673 0 0 0 16,16.664133 3.3358673,3.3358673 0 0 0 19.335867,20 3.3358673,3.3358673 0 0 0 22,18.66487 Z"/>
 <path style="opacity:0.2" d="M 31.732088,16.355355 A 3.3358673,3.3358673 0 0 1 32,17.664032 3.3358673,3.3358673 0 0 1 28.664133,20.999899 3.3358673,3.3358673 0 0 1 26,19.664769 Z"/>
 <path d="M 31.732088,15.355456 A 3.3358673,3.3358673 0 0 1 32,16.664133 3.3358673,3.3358673 0 0 1 28.664133,20 3.3358673,3.3358673 0 0 1 26,18.66487 Z" style="fill:#eb6b00"/>
 <path style="opacity:0.4" d="M 27 26.978516 C 25.958544 27.396936 25.069839 28.061959 24 27.978516 L 24 28 C 22.930161 28.083443 22.041456 27.41842 21 27 L 22.025391 37.908203 C 22.10352 38.72426 22.121077 38.833303 22.802734 38.908203 C 23.248178 38.983043 23.590161 39.01145 24 39 L 24 38.978516 C 24.409839 38.989966 24.751822 38.961559 25.197266 38.886719 C 25.878923 38.811819 25.89648 38.704729 25.974609 37.888672 L 27 26.978516 z"/>
 <path d="m 23,35.978415 c -0.434092,0.357713 -0.813335,0.828707 -1.123047,1.351562 l 0.148438,1.578125 c 0.07813,0.816057 0.09569,0.9251 0.777343,1 0.144455,0.02427 0.267949,0.03605 0.396485,0.05078 H 24 24.630859 c 0.178977,-0.01539 0.360056,-0.0376 0.566407,-0.07227 0.681657,-0.0749 0.699214,-0.18199 0.777343,-0.998047 l 0.146485,-1.560547 C 25.811626,36.806081 25.433463,36.33561 25,35.978415 v 2 h -1 -1 z" style="opacity:0.2"/>
 <path style="fill:#ffffff" d="M 23 34.978516 C 22.565908 35.336229 22.186665 35.807223 21.876953 36.330078 L 22.025391 37.908203 C 22.10352 38.72426 22.121077 38.833303 22.802734 38.908203 C 22.947189 38.932473 23.070683 38.944256 23.199219 38.958984 L 24 38.958984 L 24.630859 38.958984 C 24.809836 38.94359 24.990915 38.921388 25.197266 38.886719 C 25.878923 38.811819 25.89648 38.704729 25.974609 37.888672 L 26.121094 36.328125 C 25.811626 35.806182 25.433463 35.335711 25 34.978516 L 25 36.978516 L 24 36.978516 L 23 36.978516 L 23 34.978516 z"/>
 <path d="m 27,27.978415 c -1.041456,0.41842 -1.930161,1.083443 -3,1 v 0.02148 c -1.068416,0.08333 -1.956428,-0.57953 -2.996094,-0.998047 0.116011,1.405329 0.875666,3.074758 1.996094,3.998047 v -2 h 1 1 v 2 c 1.126557,-0.92834 1.890466,-2.611397 2,-4.021484 z" style="opacity:0.2"/>
 <path style="fill:#ffffff" d="M 27 26.978516 C 25.958544 27.396936 25.069839 28.061959 24 27.978516 L 24 28 C 22.931584 28.083332 22.043572 27.42047 21.003906 27.001953 C 21.119917 28.407282 21.879572 30.076711 23 31 L 23 29 L 24 29 L 25 29 L 25 31 C 26.126557 30.07166 26.890466 28.388603 27 26.978516 z"/>
 <path style="opacity:0.1;fill:#ffffff" d="M 10 7 L 9.0058594 8.5625 C 8.9962181 8.892336 9.0043619 9.2169251 9.0214844 9.5371094 L 10 8 L 10 7 z M 38 7 L 38 8 L 38.978516 9.5371094 C 38.995638 9.2169251 39.003782 8.892336 38.994141 8.5625 L 38 7 z M 10 8.5585938 L 10 9.5585938 L 16.494141 14.107422 L 24 14 L 31.505859 14.107422 L 38 9.5585938 L 38 8.5585938 L 31.505859 13.107422 L 24 13 L 16.494141 13.107422 L 10 8.5585938 z"/>
 <path style="opacity:0.1;fill:#ffffff" d="M 16.267578 15.355469 A 3.3358673 3.3358673 0 0 0 16 16.664062 A 3.3358673 3.3358673 0 0 0 16.041016 17.162109 A 3.3358673 3.3358673 0 0 1 16.267578 16.355469 L 21.369141 19.300781 A 3.3358673 3.3358673 0 0 0 22 18.664062 L 16.267578 15.355469 z"/>
 <path style="opacity:0.1;fill:#ffffff" d="M 31.732422 15.355469 L 26 18.664062 A 3.3358673 3.3358673 0 0 0 26.630859 19.300781 L 31.732422 16.355469 A 3.3358673 3.3358673 0 0 1 31.958984 17.162109 A 3.3358673 3.3358673 0 0 0 32 16.664062 A 3.3358673 3.3358673 0 0 0 31.732422 15.355469 z"/>
</svg>
